public/img/svg/arrow-down.svg

<!-- Generated by IcoMoon.io -->
<svg version="1.1" xmlns="http://www.w3.org/2000/svg" width="53" height="32" viewBox="0 0 53 32">
<title>arrow-down</title>
<path d="M26.677 21.248l-19.952-20.373c-0.522-0.542-1.254-0.878-2.064-0.878s-1.542 0.337-2.063 0.878l-0.001 0.001-1.744 1.776c-0.528 0.538-0.853 1.276-0.853 2.090 0 0.008 0 0.015 0 0.023v-0.001c0 0.8 0.304 1.547 0.853 2.107l23.755 24.267c0.521 0.533 1.247 0.864 2.050 0.864 0.007 0 0.014-0 0.020-0h-0.001c0.004 0 0.009 0 0.014 0 0.806 0 1.534-0.333 2.055-0.869l0.001-0.001 23.733-24.24c0.528-0.538 0.853-1.276 0.853-2.090 0-0.006-0-0.012-0-0.017v0.001c0-0.005 0-0.011 0-0.016 0-0.814-0.326-1.552-0.854-2.091l0 0.001-1.744-1.787c-0.524-0.538-1.255-0.871-2.064-0.871s-1.54 0.334-2.063 0.871l-0.001 0.001-19.931 20.357z"></path>
</svg>

<svg xmlns="http://www.w3.org/2000/svg" width="53" height="32" viewBox="0 0 53 32"><path d="M26.677 21.248L6.725.875C6.203.333 5.471-.003 4.661-.003S3.119.334 2.598.875l-.001.001L.853 2.652A2.974 2.974 0 000 4.742v.023-.001c0 .8.304 1.547.853 2.107l23.755 24.267a2.858 2.858 0 002.05.864h.02-.001.014c.806 0 1.534-.333 2.055-.869l.001-.001L52.48 6.892a2.974 2.974 0 00.853-2.09V4.77c0-.814-.326-1.552-.854-2.091v.001L50.735.893C50.211.355 49.48.022 48.671.022s-1.54.334-2.063.871l-.001.001-19.931 20.357z"/></svg>
